web/ui/src/assets/svgs/nav/top/default-avatar.svg

<svg height="36" viewBox="0 0 36 36" width="36" xmlns="http://www.w3.org/2000/svg"><g fill="none"><path d="m0 0h36v36h-36z" fill="#000" opacity="0"/><path d="m35.9296875 18.0421875c0 9.928125-8.0296875 17.9578125-17.9578125 17.9578125s-17.9578125-8.0296875-17.9578125-17.9578125c0-7.5796875 4.7390625-14.06953125 11.4257813-16.71328125 1.9898437-.79453125 4.2398437-1.24453125 6.5320312-1.24453125s4.5421875.45 6.5320313 1.24453125c6.6867187 2.64375 11.4257812 9.13359375 11.4257812 16.71328125zm-24.8414063-3.740625c0 3.0445313 1.546875 5.6390625 3.7898438 6.9328125.9492188.5484375 1.996875.8507813 3.09375.8507813s2.0953125-.3023438 2.9953125-.8015625c2.2921875-1.2445313 3.8882813-3.8882813 3.8882813-6.9820313 0-4.2890625-3.09375-7.78359375-6.8835938-7.78359375s-6.8835938 3.49453125-6.8835938 7.78359375zm6.9328125 20.5523438c5.2382813 0 9.928125-2.3976563 13.021875-6.1875-.3515625-2.9953125-3.2414062-5.5335938-7.3828125-6.7851563-1.546875 1.3992188-3.54375 2.2429688-5.6882812 2.2429688-2.19375 0-4.2398438-.9-5.7867188-2.3414063-3.99374995 1.1460938-6.93281245 3.4945313-7.57968745 6.2367188 2.98828125 4.1414062 7.93125005 6.834375 13.41562495 6.834375z" fill="#c8c8c8"/></g></svg>

<?xml version="1.0" encoding="UTF-8"?>
<svg width="36px" height="36px" viewBox="0 0 36 36" version="1.1" xmlns="http://www.w3.org/2000/svg" xmlns:xlink="http://www.w3.org/1999/xlink">
    <title>未登录头象</title>
    <g id="页面-1" stroke="none" stroke-width="1" fill="none" fill-rule="evenodd">
        <g id="建木自动化-首页备份-4" transform="translate(-1621.000000, -14.000000)" fill-rule="nonzero">
            <g id="未登录头象" transform="translate(1621.000000, 14.000000)">
                <rect id="矩形" fill="#000000" opacity="0" x="0" y="0" width="36" height="36"></rect>
                <path d="M35.9296875,18.0421875 C35.9296875,27.9703125 27.9,36 17.971875,36 C8.04375,36 0.0140625,27.9703125 0.0140625,18.0421875 C0.0140625,10.4625 4.753125,3.97265625 11.4398438,1.32890625 C13.4296875,0.534375 15.6796875,0.084375 17.971875,0.084375 C20.2640625,0.084375 22.5140625,0.534375 24.5039063,1.32890625 C31.190625,3.97265625 35.9296875,10.4625 35.9296875,18.0421875 Z M11.0882812,14.3015625 C11.0882812,17.3460938 12.6351562,19.940625 14.878125,21.234375 C15.8273438,21.7828125 16.875,22.0851563 17.971875,22.0851563 C19.06875,22.0851563 20.0671875,21.7828125 20.9671875,21.2835938 C23.259375,20.0390625 24.8554688,17.3953125 24.8554688,14.3015625 C24.8554688,10.0125 21.7617188,6.51796875 17.971875,6.51796875 C14.1820312,6.51796875 11.0882812,10.0125 11.0882812,14.3015625 Z M18.0210937,34.8539063 C23.259375,34.8539063 27.9492187,32.45625 31.0429687,28.6664063 C30.6914062,25.6710938 27.8015625,23.1328125 23.6601562,21.88125 C22.1132812,23.2804688 20.1164062,24.1242188 17.971875,24.1242188 C15.778125,24.1242188 13.7320312,23.2242188 12.1851562,21.7828125 C8.19140625,22.9289063 5.25234375,25.2773438 4.60546875,28.0195313 C7.59375,32.1609375 12.5367188,34.8539063 18.0210937,34.8539063 L18.0210937,34.8539063 Z" id="形状" fill="#C8C8C8"></path>
            </g>
        </g>
    </g>
</svg>
